src/assets/svg/dai.svg

<svg width="43" height="42" viewBox="0 0 43 42" fill="none" xmlns="http://www.w3.org/2000/svg"><path d="M21.8395 0.000610352L42.8392 21.0002L21.8395 42L0.839844 21.0002L21.8395 0.000610352Z" fill="#111"/><path d="M21.8374 27.8527L0.820312 20.9993L21.8374 0L42.8545 20.9993L21.8374 27.8527Z" fill="#111"/><path d="M8.12891 19.6286H17.7237L21.8357 15.0597L26.4046 19.6286H35.9994L21.8357 4.32312L8.12891 19.6286Z" fill="#fff"/></svg>

<svg width="43" height="42" fill="none" xmlns="http://www.w3.org/2000/svg"><path d="M21.84 0l21 21-21 21-21-21 21-21z" fill="#111"/><path d="M21.837 27.853L.82 20.999 21.837 0l21.018 21-21.018 6.853z" fill="#111"/><path d="M8.129 19.629h9.595l4.112-4.57 4.569 4.57h9.594L21.836 4.323 8.129 19.63z" fill="#fff"/></svg>
